Web_Application/Camo Studio/LUTs/Quiet background.cube
TITLE "Generated by Resolve"
LUT_3D_SIZE 5
0 0 0
0.237095 0 0
0.469749 0 0
0.629709 0 0.00120546
0.602777 0 0.0158694
0.166369 0.196368 0.163302
0.231998 0.228016 0.196963
0.3785 0.241016 0.145449
0.721996 0.190234 0.0277256
0.965652 0.137224 0.0161135
0.353887 0.406058 0.346563
0.403525 0.430106 0.372808
0.467918 0.461112 0.405051
0.570962 0.485924 0.379705
0.797116 0.477058 0.273762
0.542901 0.616861 0.53254
0.580392 0.635203 0.552071
0.639155 0.663447 0.583612
0.704524 0.694881 0.615442
0.796216 0.722774 0.598688
0.731929 0.827665 0.718502
0.761212 0.842084 0.733684
0.813123 0.867033 0.761303
0.875334 0.897093 0.794461
0.941146 0.928649 0.825818
0.0261997 0.0340734 0.0610361
0.0980087 0.0683757 0.097322
0.156939 0.0874647 0.121004
0.20061 0.0885176 0.129732
0.228641 0.0705425 0.122774
0.182483 0.214847 0.212268
0.250111 0.249958 0.248112
0.485451 0.234943 0.236683
0.723598 0.206653 0.233906
0.944167 0.164569 0.233066
0.383352 0.41181 0.393927
0.414511 0.444526 0.409888
0.480964 0.476066 0.443336
0.620081 0.492912 0.400427
0.962921 0.452247 0.276356
0.550546 0.626261 0.561379
0.588129 0.645502 0.580377
0.648142 0.674144 0.611978
0.71429 0.705867 0.64448
0.816251 0.731929 0.620768
0.737514 0.835203 0.740871
0.767132 0.849943 0.756039
0.819562 0.875273 0.783352
0.882597 0.905425 0.817105
0.948775 0.937179 0.848722
0.0671244 0.0942092 0.145708
0.149462 0.134401 0.185428
0.213153 0.156252 0.211963
0.258427 0.158251 0.221851
0.287358 0.140826 0.215747
0.180087 0.246128 0.282994
0.275334 0.283223 0.308583
0.346517 0.317464 0.344686
0.409888 0.342779 0.373342
0.463508 0.356329 0.392294
0.377066 0.435782 0.431342
0.433585 0.46569 0.461738
0.500206 0.499931 0.496757
0.735027 0.487617 0.478538
0.97142 0.467857 0.476493
0.580285 0.635584 0.610285
0.623652 0.654673 0.636011
0.662135 0.692683 0.656214
0.730312 0.724849 0.690242
0.862577 0.744106 0.653696
0.778866 0.837247 0.797543
0.782895 0.862028 0.798932
0.830747 0.890318 0.821988
0.895369 0.920867 0.855924
0.962417 0.952941 0.88838
0.0975814 0.157794 0.240574
0.201434 0.206928 0.277852
0.283391 0.24448 0.318257
0.341955 0.260975 0.340276
0.375662 0.248569 0.338491
0.186755 0.279637 0.353414
0.302602 0.324117 0.375509
0.383322 0.364401 0.416999
0.451637 0.394064 0.449531
0.510994 0.413779 0.473747
0.360769 0.458595 0.488807
0.434714 0.497002 0.532113
0.524361 0.531106 0.555474
0.594308 0.565225 0.591257
0.660746 0.594873 0.623346
0.575769 0.658991 0.652705
0.620356 0.68275 0.676768
0.683238 0.715526 0.710292
0.750286 0.74992 0.745418
0.98529 0.738888 0.720272
0.774502 0.860273 0.828901
0.809033 0.876234 0.847517
0.869352 0.901717 0.88217
0.911116 0.941787 0.903792
0.980026 0.974197 0.938033
0.1084 0.215671 0.335103
0.232288 0.266636 0.357961
0.343801 0.323278 0.416434
0.415396 0.352789 0.449546
0.471809 0.366979 0.469627
0.184894 0.315404 0.423987
0.319066 0.365179 0.445731
0.423133 0.417578 0.494179
0.497749 0.452171 0.531197
0.562707 0.47747 0.56022
0.335119 0.481392 0.555535
0.446662 0.527291 0.599054
0.551308 0.567971 0.618952
0.625498 0.604837 0.657389
0.694621 0.636576 0.691417
0.562829 0.679438 0.70454
0.617472 0.711406 0.739254
0.686748 0.747433 0.780621
0.773922 0.780148 0.803357
0.843336 0.814206 0.838972
0.774456 0.882185 0.874052
0.810361 0.901381 0.893462
0.867658 0.931579 0.924208
0.933364 0.965484 0.959014
1 0.999893 0.994064
