Web_Application/Camo Studio/LUTs/Quiet background.cube
TITLE "Generated by Resolve"
LUT_3D_SIZE 33
0 0 0
0.0287327 0 0
0.0574655 0 0
0.0866102 0 0
0.116716 0 0
0.146807 0 0
0.176898 0 0
0.206989 0 0
0.237095 0 0
0.267185 0 0
0.297246 0 0
0.327199 0 0
0.356847 0 0
0.38613 0 0
0.41471 0 0
0.442786 0 0
0.469749 0 0
0.495811 0 0
0.520729 0 0
0.543893 0 0
0.565713 0 0
0.585306 0 0
0.60267 0 0
0.618051 0 0
0.629709 0 0.00120546
0.638956 0 0.00262455
0.644877 0 0.00421149
0.646723 0 0.00604257
0.64564 0 0.00790417
0.640452 0 0.0099031
0.631708 0 0.0119173
0.619699 0 0.0138552
0.602777 0 0.0158694
0.0197147 0.0236973 0.01944
0.0286564 0.0278325 0.0237278
0.0479591 0.0299535 0.0175174
0.0890516 0.0263523 0.00419623
0.120562 0.0242924 0.00257877
0.150103 0.0224613 0.00239567
0.179767 0.020325 0.00216678
0.209522 0.0178836 0.00192264
0.239353 0.0151217 0.00163272
0.26923 0.0120546 0.00132753
0.299138 0.00865187 0.000976577
0.329076 0.00491341 0.000579843
0.35903 0.000854505 0.000167849
0.389013 0 0
0.418997 0 0
0.449012 0 0
0.479026 0 0
0.509056 0 0
0.539086 0 0
0.569131 0 0
0.598932 0 0
0.627787 0 0
0.655085 0 0
0.680583 0 0
0.704005 0 0
0.724895 0 0
0.742718 0 0
0.757397 0 0
0.768551 0 0
0.775891 0 0.000396735
0.778836 0 0.00236515
0.776593 0 0.00463874
0.769741 0 0.00709545
0.0394446 0.0474098 0.0388952
0.0484474 0.0514839 0.0435035
0.0573281 0.0556802 0.0474708
0.0710918 0.0590829 0.0441901
0.0958724 0.059617 0.0346838
0.140551 0.055024 0.0155337
0.179431 0.0508278 0.00737011
0.211994 0.0476692 0.00509651
0.241596 0.044892 0.00479133
0.271244 0.041825 0.00447089
0.300969 0.0384222 0.00411994
0.330755 0.034699 0.00373846
0.360586 0.0306249 0.00331121
0.390448 0.0262303 0.00285344
0.42034 0.0214694 0.00236515
0.450263 0.0163729 0.00184634
0.480201 0.0109102 0.00128176
0.510155 0.00508125 0.000686656
0.540124 0 4.57771e-05
0.570108 0 0
0.600092 0 0
0.630106 0 0
0.660105 0 0
0.69012 0 0
0.72015 0 0
0.749935 0 0
0.778393 0 0
0.804471 0 0
0.827787 0 0
0.84799 0 0
0.864607 0 0
0.877073 0 0
0.885084 0 0
0.0593576 0.0713359 0.0585336
0.0684215 0.0754711 0.0631113
0.077348 0.0796216 0.0678111
0.0860151 0.0837262 0.0714885
0.0977798 0.0872511 0.0691081
0.115251 0.0892805 0.0634012
0.14374 0.0882734 0.0505379
0.190234 0.0828717 0.0284123
0.232914 0.0773938 0.0157321
0.270298 0.0725567 0.00952163
0.302739 0.0684672 0.00733959
0.332448 0.0647288 0.00691234
0.362142 0.0606546 0.00648508
0.391897 0.05626 0.00604257
0.421683 0.0514992 0.00553903
0.451514 0.0464027 0.00502022
0.481376 0.04094 0.00445563
0.511254 0.035111 0.00386053
0.541161 0.0289311 0.00321965
0.571084 0.022385 0.00254826
0.601038 0.0154574 0.00183108
0.630991 0.00816358 0.00108339
0.66096 0.000488289 0.000289921
0.690929 0 0
0.720928 0 0
0.750912 0 0
0.780926 0 0
0.810925 0 0
0.840955 0 0
0.870649 0 0
0.898512 0 0
0.923278 0 0
0.944472 0 0
0.0799115 0.0958572 0.0787671
0.0891127 0.10016 0.0834211
0.0982681 0.104433 0.088304
0.106722 0.108522 0.0927596
0.115099 0.112505 0.0963455
0.125856 0.116243 0.0949416
0.140826 0.118944 0.0901198
0.160052 0.120363 0.0837873
0.188769 0.119402 0.0709697
0.235767 0.113939 0.0464332
0.28127 0.107881 0.0293584
0.322728 0.102052 0.0187533
0.360021 0.0966506 0.012726
0.39321 0.0917525 0.0100099
0.42327 0.0871443 0.00929274
0.452995 0.0821546 0.00877394
0.482765 0.0764477 0.00820935
0.512566 0.0706188 0.00761425
0.542397 0.0644388 0.00697337
0.572259 0.0578927 0.00630198
0.602136 0.0509651 0.0055848
0.632029 0.0436713 0.00483711
0.661952 0.035996 0.00404364
0.69189 0.0279393 0.00320439
0.721828 0.019501 0.00233463
0.751781 0.0106661 0.00143435
0.78175 0.00144961 0.00047303
0.811734 0 0
0.841718 0 0
0.871717 0 0
0.901717 0 0
0.931716 0 0
0.96173 0 0
0.100893 0.120623 0.0993515
0.11017 0.125032 0.104082
0.119524 0.129458 0.109071
0.127749 0.13341 0.113481
0.135882 0.137346 0.117693
0.144259 0.141314 0.121294
0.154452 0.145144 0.120577
0.16791 0.148241 0.116579
0.184894 0.150332 0.110796
0.205234 0.151324 0.104112
0.23505 0.150027 0.0902876
0.282124 0.144564 0.0646525
0.328954 0.138308 0.0448615
0.372793 0.132067 0.0310369
0.413169 0.126085 0.0218357
0.450126 0.120424 0.0161135
0.483604 0.115145 0.0131228
0.514107 0.11017 0.0120699
0.543847 0.104921 0.011429
0.573632 0.0991836 0.0107576
0.603433 0.0928969 0.0100404
0.63328 0.0859693 0.00929274
0.663127 0.0781262 0.00849927
0.693019 0.0700694 0.00766003
0.722911 0.0616159 0.00679026
0.752819 0.0527962 0.00588998
0.782742 0.0435645 0.00492866
0.81268 0.0339513 0.00393683
0.842634 0.0239414 0.00291447
0.872587 0.0135195 0.00183108
0.902556 0.00270085 0.000717174
0.93254 0 0
0.962524 0 0
0.122286 0.145617 0.120302
0.131624 0.150118 0.125078
0.140948 0.154574 0.130022
0.148943 0.158389 0.134356
0.156924 0.162249 0.138598
0.165087 0.166201 0.142779
0.173449 0.170169 0.14638
0.183307 0.17406 0.146151
0.195789 0.177386 0.142824
0.211246 0.179904 0.137621
0.229618 0.181521 0.131334
0.250706 0.182223 0.124437
0.282109 0.180499 0.109117
0.329168 0.175006 0.0829023
0.376715 0.168673 0.061326
0.422019 0.162203 0.0451209
0.4645 0.155856 0.0333562
0.50399 0.149737 0.0251316
0.540536 0.143893 0.0196994
0.574075 0.138354 0.0165866
0.604944 0.133059 0.0152132
0.634714 0.127626 0.0144656
0.6645 0.121721 0.0136721
0.694316 0.115297 0.0128328
0.724163 0.108324 0.0119631
0.754009 0.100694 0.0110628
0.783886 0.0923323 0.0101015
0.813779 0.0831159 0.00910964
0.843687 0.0728618 0.00808728
0.87361 0.0624399 0.00700389
0.903532 0.0516213 0.00588998
0.933486 0.0404059 0.0047303
0.963439 0.0287633 0.00354009
0.144106 0.170855 0.141619
0.153506 0.175433 0.146441
0.162585 0.179812 0.151232
0.170306 0.18349 0.155413
0.178119 0.187243 0.159625
0.18616 0.19115 0.163851
0.194324 0.195102 0.168017
0.202701 0.199069 0.171603
0.212314 0.202991 0.171725
0.224125 0.20647 0.168963
0.238483 0.209293 0.164294
0.255421 0.211353 0.158434
0.274815 0.212589 0.151812
0.296468 0.213031 0.144793
0.329915 0.210834 0.12752
0.377035 0.205295 0.100923
0.424918 0.198932 0.078233
0.471138 0.19234 0.0602884
0.515007 0.185779 0.0465095
0.556298 0.17937 0.0362249
0.595209 0.173098 0.0286107
0.631144 0.167163 0.0235752
0.664683 0.16141 0.0203861
0.695796 0.155871 0.0187533
0.725582 0.150256 0.0178836
0.755383 0.144213 0.016968
0.785199 0.137697 0.016022
0.815045 0.130678 0.0150301
0.844892 0.123064 0.0139925
0.874769 0.114794 0.0129244
0.904662 0.10576 0.0118105
0.934554 0.0958572 0.0106508
0.964477 0.0848859 0.00944533
0.166369 0.196368 0.163302
0.175891 0.201038 0.168215
0.184436 0.205173 0.172717
0.191852 0.208698 0.176699
0.199481 0.21236 0.180835
0.20737 0.216175 0.185046
0.215427 0.220096 0.189242
0.223621 0.224048 0.193393
0.231998 0.228016 0.196963
0.241459 0.231952 0.19736
0.252781 0.235538 0.195056
0.266316 0.238575 0.190875
0.282155 0.240955 0.185412
0.300221 0.242618 0.179126
0.320424 0.243549 0.172274
0.34258 0.243793 0.165087
0.3785 0.241016 0.145449
0.425681 0.235416 0.118685
0.473747 0.229038 0.0952316
0.520577 0.22237 0.0760052
0.565393 0.215686 0.0607004
0.607965 0.209094 0.0487221
0.648264 0.202625 0.0395209
0.686442 0.196292 0.032517
0.721996 0.190234 0.0277256
0.755367 0.184344 0.0245365
0.786618 0.178607 0.0227207
0.816449 0.172839 0.0216983
0.84625 0.166674 0.0206607
0.876081 0.160082 0.0195926
0.905928 0.153017 0.0184787
0.935775 0.145418 0.017319
0.965652 0.137224 0.0161135
0.189075 0.222126 0.185367
0.198444 0.226734 0.190219
0.2065 0.23064 0.194446
0.213581 0.234043 0.19823
0.220996 0.237583 0.202243
0.228717 0.241306 0.206409
0.236667 0.245151 0.21062
0.244755 0.249088 0.214801
0.252949 0.25304 0.218936
0.261326 0.257008 0.222477
0.27068 0.260945 0.223072
0.281651 0.264622 0.221149
0.294575 0.267811 0.217395
0.309545 0.270436 0.212329
0.326558 0.272419 0.206363
0.345541 0.273762 0.199756
0.366384 0.274449 0.192737
0.388998 0.274479 0.185397
0.427893 0.271046 0.162951
0.475166 0.265385 0.13608
0.523323 0.258991 0.112154
0.570474 0.252293 0.0920577
0.615915 0.245548 0.0755779
0.659464 0.238819 0.0622263
0.700923 0.232197 0.0515908
0.740337 0.225711 0.0432593
0.777798 0.219333 0.0368048
0.812985 0.213184 0.0321965
0.846174 0.207172 0.0290379
0.87744 0.201282 0.0270848
0.907332 0.195377 0.0259098
0.937133 0.189136 0.0247501
0.966964 0.182467 0.0235599
0.212253 0.248142 0.207828
0.221149 0.252552 0.212436
0.228733 0.256229 0.216419
0.235508 0.259495 0.220005
0.242664 0.262913 0.223865
0.250233 0.266529 0.22797
0.25803 0.270314 0.232151
0.266026 0.274189 0.236347
0.274128 0.278126 0.240513
0.282338 0.282078 0.244648
0.290715 0.28603 0.248157
0.299977 0.289998 0.248905
0.310689 0.293706 0.247288
0.323125 0.297032 0.2439
0.337407 0.29984 0.239185
0.353582 0.302083 0.233524
0.371572 0.303731 0.227192
0.391318 0.304799 0.220386
0.412695 0.305257 0.21323
0.436912 0.304906 0.20444
0.47808 0.300938 0.180011
0.525505 0.295201 0.153109
0.573648 0.288792 0.128954
0.621012 0.282094 0.108232
0.666865 0.275288 0.0908675
0.711055 0.268498 0.076463
0.753384 0.261769 0.0646525
0.793851 0.255146 0.0550851
0.832761 0.248569 0.0472572
0.869307 0.242237 0.0414435
0.904067 0.236027 0.0370489
0.937072 0.229908 0.0338903
0.968277 0.223911 0.0318456
0.235828 0.274403 0.230655
0.244007 0.278447 0.234897
0.251148 0.281926 0.238621
0.257618 0.285054 0.242039
0.264515 0.28835 0.245747
0.27187 0.291875 0.249729
0.279545 0.295552 0.253864
0.287404 0.299367 0.258061
0.29543 0.303273 0.262242
0.303548 0.30721 0.266392
0.311772 0.311162 0.270512
0.32015 0.315114 0.273976
0.329351 0.319081 0.274861
0.339834 0.322835 0.273503
0.351888 0.326238 0.27042
0.365637 0.329198 0.266026
0.381109 0.331655 0.26067
0.398291 0.333562 0.254597
0.417105 0.334936 0.248005
0.437491 0.335744 0.241016
0.459236 0.336049 0.233875
0.486549 0.335027 0.222034
0.529152 0.330678 0.196612
0.576669 0.324865 0.169787
0.624796 0.318441 0.145525
0.672236 0.311742 0.124407
0.718395 0.304921 0.106386
0.763027 0.298085 0.0911421
0.805966 0.291295 0.0784009
0.847257 0.284581 0.0677958
0.886793 0.277974 0.0591287
0.92491 0.271397 0.0519112
0.960937 0.265019 0.0464332
0.259388 0.300679 0.253635
0.266972 0.304433 0.257557
0.273732 0.307729 0.261067
0.279881 0.310704 0.264317
0.286534 0.313893 0.267857
0.293675 0.317311 0.271702
0.301183 0.320912 0.275776
0.308934 0.324651 0.279942
0.316838 0.328496 0.284123
0.32488 0.332403 0.288289
0.333028 0.336339 0.292439
0.341253 0.340291 0.296544
0.349645 0.344244 0.299977
0.358785 0.348211 0.300938
0.3691 0.351995 0.299809
0.38085 0.355474 0.296986
0.394156 0.358557 0.292882
0.409049 0.361166 0.2878
0.425544 0.363287 0.281971
0.44358 0.36492 0.275593
0.463111 0.366018 0.268788
0.484047 0.366629 0.261662
0.506279 0.366735 0.254368
0.53695 0.364996 0.239292
0.581109 0.360265 0.212757
0.628702 0.35436 0.186084
0.676768 0.347936 0.161837
0.724193 0.341238 0.14052
0.770504 0.334417 0.122026
0.815457 0.327565 0.106157
0.858854 0.320745 0.0926833
0.900771 0.313954 0.0812085
0.941024 0.307271 0.0716564
0.282994 0.327001 0.276768
0.290074 0.330495 0.28043
0.296437 0.333623 0.283757
0.302312 0.336477 0.286839
0.308705 0.339544 0.290211
0.315633 0.342855 0.293919
0.322957 0.346365 0.297887
0.330571 0.350027 0.302007
0.338384 0.353796 0.306172
0.346334 0.357656 0.310353
0.354391 0.361578 0.314519
0.362554 0.365515 0.318639
0.370779 0.369467 0.322744
0.379171 0.373434 0.326131
0.388281 0.377401 0.327169
0.398474 0.381201 0.326207
0.409964 0.384741 0.323629
0.422904 0.3879 0.319783
0.437324 0.390661 0.314946
0.453239 0.39295 0.309361
0.470619 0.394781 0.303181
0.489403 0.396139 0.296559
0.509544 0.397024 0.289586
0.530983 0.397436 0.282353
0.553674 0.397375 0.274907
0.588754 0.394705 0.255543
0.633921 0.389685 0.228534
0.681605 0.383719 0.202045
0.729625 0.377264 0.177874
0.77702 0.370565 0.156435
0.823346 0.36376 0.137697
0.868452 0.356909 0.121386
0.912215 0.350057 0.107286
0.30663 0.353368 0.300069
0.313252 0.356649 0.303502
0.31928 0.359609 0.30663
0.324895 0.362325 0.30956
0.331029 0.365286 0.312795
0.337728 0.368505 0.316365
0.344869 0.371923 0.320211
0.352331 0.375494 0.324254
0.360037 0.379202 0.328405
0.367895 0.383001 0.332586
0.375875 0.386892 0.336767
0.383963 0.390814 0.340917
0.392126 0.394751 0.345037
0.400351 0.398703 0.349126
0.408759 0.402655 0.352453
0.417838 0.406638 0.353567
0.427924 0.410452 0.352743
0.439216 0.414038 0.350378
0.45185 0.417288 0.346761
0.465888 0.420142 0.342153
0.481315 0.422583 0.336782
0.498146 0.424598 0.3308
0.51632 0.426169 0.324346
0.535775 0.427283 0.317525
0.556497 0.427955 0.31043
0.578195 0.428199 0.303212
0.602747 0.42771 0.294041
0.641794 0.424186 0.271046
0.687678 0.418936 0.243854
0.735393 0.412894 0.217655
0.783261 0.406439 0.193713
0.83061 0.399756 0.172244
0.876936 0.392966 0.153338
0.330251 0.379721 0.323323
0.336477 0.382788 0.326528
0.342199 0.385611 0.329503
0.347539 0.38822 0.332296
0.353429 0.391073 0.335393
0.359915 0.394186 0.338827
0.366857 0.397498 0.34255
0.374166 0.400992 0.346502
0.381735 0.404623 0.350591
0.389502 0.408377 0.354757
0.397406 0.412207 0.358938
0.405417 0.416098 0.363119
0.413504 0.420035 0.367254
0.421683 0.423972 0.371374
0.429923 0.427924 0.375463
0.438331 0.431876 0.378759
0.447395 0.435859 0.379919
0.457374 0.439704 0.379248
0.468498 0.44332 0.377066
0.480873 0.446632 0.373663
0.494545 0.449592 0.369284
0.50956 0.452171 0.364111
0.525887 0.454337 0.358328
0.543511 0.456077 0.352056
0.562387 0.457404 0.345403
0.582452 0.45832 0.338445
0.603677 0.458793 0.331243
0.625925 0.458885 0.323934
0.654536 0.457557 0.31075
0.696025 0.453452 0.285908
0.742489 0.44799 0.258747
0.790265 0.441886 0.232853
0.838056 0.435416 0.209171
0.353887 0.406058 0.346563
0.359731 0.408972 0.349584
0.365164 0.411643 0.352407
0.370275 0.41413 0.355062
0.375937 0.416876 0.358038
0.382193 0.419898 0.361334
0.388937 0.423133 0.364935
0.396078 0.426551 0.368795
0.403525 0.430106 0.372808
0.41117 0.433783 0.376944
0.418982 0.437568 0.381125
0.426917 0.441413 0.385306
0.434958 0.445319 0.389471
0.443061 0.449256 0.393606
0.451255 0.453193 0.397726
0.459495 0.457145 0.401801
0.467918 0.461112 0.405051
0.476951 0.46508 0.406256
0.486854 0.46894 0.405722
0.49781 0.472587 0.403723
0.509957 0.475959 0.400534
0.523323 0.479011 0.396353
0.537957 0.481697 0.391394
0.553841 0.484001 0.385809
0.570962 0.485924 0.379705
0.589273 0.487434 0.373205
0.608759 0.488548 0.366384
0.629358 0.489265 0.359319
0.651011 0.489586 0.352041
0.673701 0.489509 0.344594
0.706661 0.487282 0.327169
0.750179 0.482689 0.300877
0.797116 0.477058 0.273762
0.377508 0.43241 0.369818
0.383032 0.435157 0.372671
0.38819 0.43769 0.375341
0.393088 0.440085 0.377874
0.39852 0.442725 0.380728
0.404562 0.445655 0.383902
0.411109 0.448798 0.387381
0.418082 0.452125 0.391119
0.425376 0.455619 0.395071
0.432914 0.459236 0.399145
0.44062 0.462943 0.403296
0.448478 0.466758 0.407477
0.456443 0.470619 0.411658
0.4645 0.47454 0.415808
0.472618 0.478477 0.419959
0.480812 0.482414 0.424063
0.489052 0.486351 0.428138
0.49749 0.490333 0.431357
0.506508 0.494301 0.432609
0.516335 0.498177 0.432181
0.527169 0.501854 0.43035
0.539086 0.505287 0.427344
0.552178 0.508415 0.423362
0.566461 0.511193 0.418601
0.581949 0.513634 0.413199
0.598611 0.515694 0.407279
0.616434 0.517372 0.400946
0.63537 0.518669 0.394263
0.65539 0.5196 0.38732
0.676463 0.520134 0.380148
0.698344 0.520333 0.372992
0.722622 0.519905 0.364096
0.759823 0.516777 0.342672
0.401144 0.458762 0.393057
0.406363 0.461357 0.395758
0.411276 0.463783 0.398291
0.415946 0.466072 0.400732
0.42118 0.46862 0.403464
0.427008 0.471443 0.406516
0.433371 0.47451 0.409888
0.440162 0.47776 0.41352
0.447303 0.481163 0.417365
0.454704 0.484718 0.421363
0.462333 0.488365 0.425483
0.4701 0.492119 0.429648
0.477989 0.495949 0.433829
0.485969 0.49984 0.43801
0.494041 0.503746 0.442161
0.50219 0.507683 0.446296
0.510384 0.511635 0.450401
0.518624 0.515572 0.454475
0.527062 0.519554 0.457649
0.536065 0.523522 0.458946
0.54583 0.527413 0.45864
0.556527 0.531121 0.456962
0.568276 0.534585 0.454124
0.581109 0.537789 0.45034
0.595087 0.540658 0.445762
0.610208 0.543206 0.440543
0.626444 0.545403 0.434791
0.643809 0.547234 0.428611
0.662257 0.548699 0.42208
0.681743 0.549813 0.415259
0.702235 0.550561 0.408194
0.723705 0.550958 0.400961
0.746044 0.551003 0.393637
0.424765 0.485115 0.416297
0.429725 0.487572 0.41886
0.434409 0.489876 0.421286
0.43888 0.492088 0.423606
0.443915 0.494545 0.42623
0.449546 0.497276 0.429175
0.455711 0.500252 0.432441
0.462318 0.503426 0.43595
0.469306 0.506752 0.439704
0.47657 0.510231 0.443626
0.484077 0.513832 0.4477
0.491768 0.517525 0.451835
0.49958 0.521309 0.456016
0.5075 0.525154 0.460197
0.515511 0.529046 0.464363
0.523598 0.532967 0.468513
0.531746 0.536904 0.472648
0.53994 0.540856 0.476753
0.548196 0.544793 0.480827
0.556649 0.548775 0.48394
0.565621 0.552743 0.485283
0.575326 0.556634 0.485069
0.585916 0.560372 0.483528
0.597498 0.563882 0.480873
0.610101 0.567132 0.477256
0.623789 0.570092 0.472862
0.638575 0.572747 0.467826
0.654444 0.575051 0.462242
0.671382 0.57702 0.456214
0.689357 0.578653 0.449821
0.708354 0.579934 0.443137
0.728344 0.580865 0.436179
0.749264 0.58146 0.429038
0.448402 0.511467 0.439551
0.453101 0.513802 0.441978
0.457572 0.516014 0.444297
0.46186 0.51812 0.446525
0.466697 0.520485 0.449042
0.472145 0.52314 0.451881
0.478126 0.526024 0.455024
0.48455 0.529122 0.458442
0.491371 0.532387 0.462089
0.498512 0.53579 0.465934
0.505898 0.53933 0.469932
0.513481 0.542962 0.474037
0.521218 0.5467 0.478187
0.529076 0.5505 0.482368
0.537011 0.55436 0.486549
0.545052 0.558267 0.490715
0.55314 0.562188 0.494865
0.561303 0.566125 0.498985
0.569512 0.570077 0.50309
0.577768 0.574014 0.507164
0.586221 0.577996 0.510246
0.595193 0.581979 0.51162
0.604837 0.58587 0.511498
0.615335 0.589624 0.510094
0.626749 0.593179 0.507591
0.639155 0.596475 0.504143
0.652583 0.599512 0.499931
0.667063 0.602243 0.495048
0.682582 0.604669 0.489632
0.699123 0.60676 0.483757
0.716686 0.60853 0.477501
0.735225 0.609979 0.470939
0.754726 0.611078 0.464118
0.472023 0.53782 0.462791
0.476509 0.540032 0.46511
0.480781 0.542153 0.467323
0.484901 0.544182 0.469459
0.489555 0.546456 0.47187
0.49482 0.54902 0.474617
0.500603 0.551827 0.477668
0.506859 0.554849 0.480964
0.513527 0.558038 0.48452
0.520516 0.561379 0.488273
0.527779 0.564858 0.492195
0.535271 0.568444 0.496239
0.542916 0.572122 0.500374
0.550683 0.575875 0.50454
0.558572 0.57969 0.508721
0.566537 0.583566 0.512901
0.574594 0.587472 0.517067
0.582696 0.591409 0.521202
0.59086 0.595346 0.525338
0.599084 0.599298 0.529427
0.60734 0.603235 0.533501
0.615793 0.607217 0.536538
0.62475 0.6112 0.537942
0.634363 0.615106 0.537911
0.644755 0.618875 0.536629
0.656031 0.622461 0.534279
0.668254 0.625803 0.530999
0.681453 0.628901 0.52694
0.695644 0.631724 0.522225
0.710842 0.634241 0.51696
0.727031 0.636454 0.511238
0.744183 0.638346 0.505135
0.76231 0.639933 0.498695
0.495659 0.564157 0.486046
0.499931 0.566293 0.488243
0.504021 0.568307 0.490364
0.507973 0.57026 0.492409
0.512459 0.572457 0.494743
0.51754 0.574945 0.497398
0.523156 0.577676 0.500343
0.529244 0.580606 0.503548
0.535744 0.583734 0.506996
0.542596 0.587015 0.510658
0.549722 0.590417 0.514504
0.557107 0.593942 0.518486
0.56466 0.597559 0.522576
0.572351 0.601282 0.526726
0.580163 0.605051 0.530907
0.588083 0.608896 0.535088
0.596078 0.612772 0.539254
0.604135 0.616693 0.54342
0.612253 0.62063 0.547555
0.620432 0.624567 0.551675
0.628641 0.628519 0.555764
0.636912 0.632456 0.559823
0.64538 0.636439 0.562844
0.654322 0.640421 0.564263
0.663874 0.644327 0.564309
0.674189 0.648112 0.563149
0.685344 0.651728 0.560937
0.697383 0.655131 0.557809
0.710369 0.658274 0.553918
0.7243 0.661173 0.549355
0.739208 0.663783 0.544244
0.755062 0.666102 0.538674
0.771862 0.668116 0.532692
0.51928 0.590509 0.509285
0.523369 0.592538 0.511391
0.527276 0.594476 0.51342
0.53109 0.596353 0.515389
0.535409 0.598489 0.517632
0.540322 0.600885 0.520195
0.545769 0.60354 0.523049
0.551705 0.606394 0.526162
0.558038 0.609461 0.529503
0.564736 0.612665 0.533089
0.57174 0.616007 0.536843
0.578988 0.619486 0.540764
0.58645 0.623041 0.544793
0.594064 0.626703 0.548913
0.601816 0.630442 0.553079
0.609659 0.634241 0.55726
0.617594 0.638102 0.56144
0.625605 0.641993 0.565606
0.633677 0.645914 0.569772
0.64181 0.649851 0.573907
0.649989 0.653788 0.578012
0.658213 0.65774 0.582116
0.666468 0.661677 0.58616
0.674952 0.66566 0.589136
0.683879 0.669642 0.590585
0.693401 0.673564 0.590723
0.703639 0.677363 0.589654
0.714672 0.680995 0.587579
0.726558 0.684428 0.584588
0.739345 0.687648 0.58085
0.753048 0.690593 0.576455
0.767666 0.693294 0.571496
0.783215 0.695705 0.566049
0.542901 0.616861 0.53254
0.546807 0.618799 0.534554
0.550576 0.620661 0.536492
0.554238 0.622477 0.538384
0.558419 0.624521 0.540551
0.563165 0.626856 0.543023
0.568444 0.629435 0.545785
0.574212 0.632227 0.548806
0.580392 0.635203 0.552071
0.586938 0.638346 0.55555
0.593805 0.641642 0.559228
0.600946 0.645045 0.563073
0.608301 0.648554 0.567056
0.615824 0.652171 0.57113
0.623499 0.655863 0.575265
0.631281 0.659617 0.579431
0.639155 0.663447 0.583612
0.64712 0.667308 0.587793
0.655146 0.671199 0.591959
0.663233 0.675135 0.596109
0.671366 0.679072 0.600244
0.679561 0.683009 0.604364
0.687785 0.686961 0.608454
0.69604 0.690898 0.612482
0.704524 0.694881 0.615442
0.713451 0.698863 0.616922
0.722942 0.702785 0.617105
0.733104 0.7066 0.616144
0.74403 0.710262 0.614191
0.755779 0.713741 0.611353
0.768368 0.716991 0.607752
0.781857 0.720012 0.603494
0.796216 0.722774 0.598688
0.566537 0.643214 0.555779
0.570275 0.645075 0.557717
0.573892 0.64686 0.559579
0.577417 0.6486 0.56141
0.581445 0.650584 0.5635
0.586053 0.652842 0.565881
0.59118 0.655344 0.568566
0.59678 0.658061 0.571496
0.602808 0.660975 0.57467
0.609216 0.664057 0.578058
0.615946 0.667292 0.581659
0.62295 0.670634 0.585412
0.630198 0.674098 0.589334
0.637644 0.677653 0.593362
0.645228 0.6813 0.597467
0.652949 0.685023 0.601617
0.660761 0.688807 0.605798
0.668666 0.692638 0.609979
0.676646 0.696513 0.614145
0.684688 0.70042 0.618311
0.692775 0.704341 0.622461
0.700923 0.708293 0.626596
0.709117 0.71223 0.630701
0.717342 0.716182 0.634791
0.725612 0.720119 0.638804
0.734112 0.724102 0.641733
0.743023 0.728084 0.643229
0.752468 0.732021 0.643488
0.76257 0.735836 0.642634
0.773404 0.739528 0.640787
0.785016 0.743023 0.638086
0.797436 0.746334 0.634623
0.810712 0.749401 0.630503
0.590158 0.669566 0.579019
0.593759 0.671351 0.58088
0.597238 0.673075 0.582681
0.600626 0.674754 0.584436
0.604532 0.676661 0.58645
0.608988 0.678859 0.588769
0.613962 0.681285 0.591363
0.61941 0.68394 0.594217
0.625284 0.686778 0.597299
0.63154 0.689799 0.60061
0.638148 0.692973 0.60412
0.645029 0.696269 0.607797
0.652155 0.699672 0.611643
0.659495 0.703182 0.61561
0.667002 0.706767 0.619684
0.674647 0.710445 0.623804
0.682414 0.714199 0.62797
0.690257 0.717998 0.632151
0.698177 0.721843 0.636332
0.706172 0.725719 0.640513
0.714229 0.729641 0.644663
0.722332 0.733562 0.648814
0.73048 0.737514 0.652934
0.738689 0.741451 0.657038
0.746914 0.745403 0.661128
0.755184 0.74934 0.665125
0.763684 0.753323 0.668025
0.77258 0.757305 0.669551
0.78201 0.761242 0.669871
0.79205 0.765072 0.669108
0.802792 0.76878 0.667369
0.814282 0.77232 0.66479
0.826551 0.775647 0.661463
0.613794 0.695918 0.602274
0.617243 0.697627 0.604059
0.620584 0.69929 0.605783
0.623865 0.700908 0.607477
0.627634 0.70277 0.60943
0.631952 0.70489 0.611673
0.63679 0.70724 0.614191
0.642084 0.709834 0.616953
0.647822 0.712612 0.619959
