Web_Application/Camo Studio/LUTs/Quiet background.cube
TITLE "Generated by Resolve"
LUT_3D_SIZE 9
0 0 0
0.116716 0 0
0.237095 0 0
0.356847 0 0
0.469749 0 0
0.565713 0 0
0.629709 0 0.00120546
0.64564 0 0.00790417
0.602777 0 0.0158694
0.0799115 0.0958572 0.0787671
0.115099 0.112505 0.0963455
0.188769 0.119402 0.0709697
0.360021 0.0966506 0.012726
0.482765 0.0764477 0.00820935
0.602136 0.0509651 0.0055848
0.721828 0.019501 0.00233463
0.841718 0 0
0.96173 0 0
0.166369 0.196368 0.163302
0.199481 0.21236 0.180835
0.231998 0.228016 0.196963
0.282155 0.240955 0.185412
0.3785 0.241016 0.145449
0.565393 0.215686 0.0607004
0.721996 0.190234 0.0277256
0.84625 0.166674 0.0206607
0.965652 0.137224 0.0161135
0.259388 0.300679 0.253635
0.286534 0.313893 0.267857
0.316838 0.328496 0.284123
0.349645 0.344244 0.299977
0.394156 0.358557 0.292882
0.463111 0.366018 0.268788
0.581109 0.360265 0.212757
0.770504 0.334417 0.122026
0.941024 0.307271 0.0716564
0.353887 0.406058 0.346563
0.375937 0.416876 0.358038
0.403525 0.430106 0.372808
0.434958 0.445319 0.389471
0.467918 0.461112 0.405051
0.509957 0.475959 0.400534
0.570962 0.485924 0.379705
0.651011 0.489586 0.352041
0.797116 0.477058 0.273762
0.448402 0.511467 0.439551
0.466697 0.520485 0.449042
0.491371 0.532387 0.462089
0.521218 0.5467 0.478187
0.55314 0.562188 0.494865
0.586221 0.577996 0.510246
0.626749 0.593179 0.507591
0.682582 0.604669 0.489632
0.754726 0.611078 0.464118
0.542901 0.616861 0.53254
0.558419 0.624521 0.540551
0.580392 0.635203 0.552071
0.608301 0.648554 0.567056
0.639155 0.663447 0.583612
0.671366 0.679072 0.600244
0.704524 0.694881 0.615442
0.74403 0.710262 0.614191
0.796216 0.722774 0.598688
0.637415 0.722271 0.625513
0.650782 0.728878 0.632425
0.670405 0.73846 0.642649
0.696239 0.750881 0.656367
0.725811 0.765042 0.672358
0.757214 0.780255 0.689036
0.789609 0.795956 0.705623
0.822843 0.811765 0.720623
0.861601 0.827283 0.720485
0.731929 0.827665 0.718502
0.743603 0.833448 0.724529
0.761212 0.842084 0.733684
0.785061 0.85362 0.746227
0.813123 0.867033 0.761303
0.843595 0.881682 0.777752
0.875334 0.897093 0.794461
0.907866 0.91284 0.811002
0.941146 0.928649 0.825818
0.0112764 0.0142061 0.0277104
0.0462806 0.0316167 0.0458228
0.0806439 0.0471351 0.0625315
0.111299 0.0584573 0.0757153
0.138384 0.0655222 0.0853285
0.161822 0.0681621 0.0912642
0.181521 0.0662089 0.09337
0.197406 0.0594644 0.0915236
0.20914 0.0478981 0.0855879
0.0905165 0.107317 0.105669
0.125063 0.124971 0.123781
0.242573 0.118151 0.116732
0.361257 0.106386 0.115541
0.480446 0.0886854 0.113939
0.585229 0.0673533 0.114244
0.654032 0.0504311 0.118273
0.666743 0.0435645 0.125856
0.616907 0.0487678 0.134173
0.184588 0.201053 0.191836
0.206638 0.22179 0.204074
0.240314 0.237736 0.220951
0.308354 0.246708 0.200916
0.479515 0.227344 0.137407
0.607004 0.212451 0.129213
0.725856 0.195758 0.126757
0.845121 0.17409 0.123781
0.964675 0.145739 0.120241
0.26862 0.306096 0.276951
0.292226 0.321477 0.288167
0.3234 0.336294 0.30457
0.35668 0.352239 0.320821
0.407584 0.365408 0.309117
0.502068 0.366903 0.271992
0.685588 0.344701 0.188998
0.843061 0.323018 0.154498
0.970733 0.304829 0.145632
0.358053 0.411719 0.363317
0.380438 0.422873 0.374746
0.408438 0.436347 0.389319
0.440421 0.451621 0.406424
0.473655 0.467552 0.422202
0.518776 0.482002 0.414816
0.587716 0.490043 0.391562
0.701442 0.486305 0.340307
0.888884 0.462959 0.250217
0.451881 0.516182 0.453544
0.47039 0.525383 0.46302
0.495277 0.537484 0.475914
0.525536 0.551873 0.492103
0.557748 0.567422 0.509117
0.590997 0.583322 0.524575
0.633234 0.598337 0.520058
0.693614 0.60882 0.500099
0.77229 0.61355 0.47361
0.545876 0.620859 0.544442
0.561517 0.628641 0.552468
0.583627 0.63946 0.563897
0.611765 0.652918 0.57879
0.642924 0.667826 0.595575
0.675303 0.683513 0.612421
0.708583 0.699382 0.627649
0.749142 0.714702 0.625116
0.80412 0.726635 0.608057
0.639994 0.725719 0.635813
0.653437 0.732403 0.642725
0.673152 0.742092 0.652903
0.699123 0.75462 0.666529
0.728908 0.768811 0.682567
0.76051 0.784039 0.699458
0.793011 0.799786 0.716167
0.826337 0.815656 0.731182
0.865797 0.831128 0.730129
0.734188 0.830686 0.727535
0.745922 0.83653 0.733562
0.763592 0.845228 0.742687
0.787533 0.85684 0.755169
0.815732 0.870314 0.770214
0.846387 0.884978 0.78677
0.878248 0.900404 0.803616
0.910842 0.916182 0.820264
0.944213 0.932052 0.835065
0.0261997 0.0340734 0.0610361
0.0618143 0.0518349 0.07953
0.0980087 0.0683757 0.097322
0.129427 0.0801404 0.111009
0.156939 0.0874647 0.121004
0.180682 0.0903029 0.127275
0.20061 0.0885176 0.129732
0.216632 0.0819715 0.128267
0.228641 0.0705425 0.122774
0.0930953 0.124392 0.142382
0.137407 0.141054 0.153567
0.172686 0.158145 0.171527
0.205234 0.172 0.186801
0.234485 0.181811 0.198764
0.259251 0.18613 0.206195
0.278798 0.184039 0.208392
0.294652 0.177401 0.206851
0.306554 0.165911 0.201297
0.182483 0.214847 0.212268
0.216663 0.232792 0.230549
0.250111 0.249958 0.248112
0.367529 0.244083 0.237629
0.485451 0.234943 0.236683
0.604288 0.222675 0.235447
0.723598 0.206653 0.233906
0.841245 0.186572 0.232441
0.944167 0.164569 0.233066
0.278523 0.312963 0.298665
0.310719 0.326574 0.317067
0.330816 0.34612 0.327581
0.365072 0.362264 0.34464
0.430396 0.372198 0.327062
0.600473 0.354559 0.260838
0.731884 0.340978 0.249775
0.850248 0.328069 0.248035
0.9691 0.312337 0.245991
0.383352 0.41181 0.393927
0.389624 0.429267 0.398047
0.414511 0.444526 0.409888
0.447318 0.459983 0.427115
0.480964 0.476066 0.443336
0.531792 0.489509 0.431891
0.620081 0.492912 0.400427
0.801999 0.472618 0.314977
0.962921 0.452247 0.276356
0.464576 0.519509 0.47747
0.475303 0.532021 0.481559
0.50045 0.544442 0.494316
0.531151 0.559075 0.510262
0.563928 0.574685 0.527749
0.597436 0.590707 0.543404
0.642618 0.605325 0.536126
0.710628 0.613977 0.513664
0.814649 0.613001 0.470985
0.550546 0.626261 0.561379
0.565805 0.634455 0.569009
0.588129 0.645502 0.580377
0.61651 0.659175 0.595041
0.648142 0.674144 0.611978
0.680812 0.689891 0.62916
0.71429 0.705867 0.64448
0.756603 0.721004 0.640024
0.816251 0.731929 0.620768
0.643671 0.730739 0.650614
0.657252 0.73756 0.657557
0.677119 0.747402 0.667704
0.703258 0.760098 0.681193
0.733349 0.774395 0.697139
0.765286 0.789639 0.714305
0.797955 0.805447 0.731258
0.831418 0.821393 0.746303
0.872038 0.836789 0.743847
0.737514 0.835203 0.740871
0.74934 0.841123 0.746929
0.767132 0.849943 0.756039
0.79118 0.861692 0.768429
0.819562 0.875273 0.783352
0.850507 0.889982 0.800015
0.882597 0.905425 0.817105
0.915312 0.921263 0.83389
0.948775 0.937179 0.848722
0.0453651 0.0609903 0.100023
0.0812695 0.0788586 0.118441
0.120928 0.0973678 0.138201
0.153552 0.109819 0.152621
0.18172 0.11751 0.163012
0.205859 0.120592 0.169589
0.226062 0.118975 0.17229
0.242298 0.112566 0.171054
0.254505 0.101259 0.165789
0.104646 0.142916 0.1785
0.151171 0.160586 0.186191
0.189654 0.179751 0.206119
0.224048 0.195117 0.222782
0.255116 0.206775 0.236347
0.282338 0.21387 0.246143
0.30428 0.214542 0.250675
0.320211 0.207874 0.24921
0.33228 0.19649 0.243885
0.181521 0.229801 0.244312
0.217899 0.248631 0.265797
0.262058 0.265309 0.277272
0.29691 0.282368 0.295125
0.330373 0.297566 0.311482
0.362112 0.310597 0.326024
0.39176 0.321019 0.338445
0.422339 0.327245 0.348226
0.458915 0.32665 0.354345
0.27808 0.324376 0.320867
0.309438 0.341039 0.337774
0.341619 0.357748 0.354879
0.375158 0.374945 0.372427
0.492744 0.369619 0.35848
0.610101 0.361608 0.357641
0.72842 0.351461 0.356588
0.847303 0.338918 0.355337
0.966552 0.323674 0.353857
0.376806 0.424918 0.408545
0.40235 0.437034 0.422324
0.43418 0.450538 0.440589
0.455421 0.470771 0.451469
0.489967 0.487007 0.46862
0.554238 0.497414 0.451621
0.72163 0.481239 0.38468
0.856947 0.467948 0.370474
0.974914 0.456947 0.369055
0.485374 0.522484 0.502892
0.503136 0.532876 0.514641
0.511345 0.55172 0.520226
0.538048 0.568414 0.532799
0.571664 0.584161 0.550423
0.60557 0.600351 0.566598
0.656336 0.613977 0.555352
0.740932 0.61854 0.527214
0.920302 0.599786 0.441123
0.581567 0.624353 0.596033
0.584955 0.637034 0.598688
0.594095 0.6533 0.601541
0.622583 0.667384 0.6159
0.654704 0.682582 0.632578
0.687968 0.698375 0.650263
0.721675 0.714488 0.665843
0.766979 0.729229 0.658595
0.834455 0.738293 0.636652
0.660624 0.732891 0.678035
0.664881 0.743374 0.678889
0.682353 0.754467 0.687114
0.70869 0.767422 0.700481
0.739055 0.781949 0.716136
0.771527 0.797253 0.733516
0.804532 0.813138 0.75082
0.838178 0.82919 0.766003
0.880644 0.844404 0.761517
0.744228 0.840421 0.760449
0.753964 0.847318 0.764843
0.771862 0.856352 0.773938
0.796094 0.868299 0.786267
0.824659 0.882078 0.800977
0.855955 0.89688 0.817578
0.888441 0.912367 0.835004
0.921355 0.928252 0.852018
0.954971 0.944259 0.866926
0.0671244 0.0942092 0.145708
0.104494 0.112535 0.162417
0.149462 0.134401 0.185428
0.18407 0.148043 0.201022
0.213153 0.156252 0.211963
0.237858 0.159655 0.218875
0.258427 0.158251 0.221851
0.274937 0.15201 0.220829
0.287358 0.140826 0.215747
0.116701 0.163882 0.214481
0.164141 0.181949 0.220722
0.208179 0.204318 0.243076
0.244999 0.221515 0.261433
0.278065 0.235065 0.276646
0.307668 0.244739 0.288609
0.33315 0.249531 0.296574
0.352789 0.247272 0.298772
0.365072 0.235996 0.293599
0.180087 0.246128 0.282994
0.226429 0.264195 0.299413
0.275334 0.283223 0.308583
0.31191 0.301381 0.32752
0.346517 0.317464 0.344686
0.379217 0.33135 0.360021
0.409888 0.342779 0.373342
0.438163 0.351339 0.384268
0.463508 0.356329 0.392294
0.27631 0.336828 0.348775
0.309224 0.355749 0.369177
0.343572 0.373724 0.389944
0.386908 0.389944 0.401312
0.42153 0.406958 0.419104
0.455314 0.422736 0.435889
0.487984 0.437049 0.451484
0.519707 0.449592 0.465705
0.572961 0.453437 0.477562
0.377066 0.435782 0.431342
0.403601 0.449943 0.445686
0.433585 0.46569 0.461738
0.466728 0.482719 0.479255
0.500206 0.499931 0.496757
0.618067 0.495003 0.479316
0.735027 0.487617 0.478538
0.852918 0.478614 0.477592
0.97142 0.467857 0.476493
0.475654 0.53669 0.518868
0.496696 0.547326 0.530205
0.524514 0.560403 0.545113
0.558312 0.575051 0.564614
0.580209 0.595529 0.57554
0.614908 0.611826 0.592737
0.678248 0.622629 0.576181
0.842756 0.607721 0.508858
0.981888 0.594324 0.491341
0.580285 0.635584 0.610285
0.601038 0.642893 0.621607
0.623652 0.654673 0.636011
0.633875 0.675532 0.642908
0.662135 0.692683 0.656214
0.696239 0.708583 0.674083
0.730312 0.724849 0.690242
0.780972 0.738643 0.679164
0.862577 0.744106 0.653696
0.687541 0.733577 0.706722
0.698558 0.741756 0.714488
0.706538 0.756344 0.720668
0.715358 0.776074 0.723217
0.745739 0.791012 0.738445
0.778714 0.806531 0.75555
0.812284 0.822446 0.773373
0.846174 0.838621 0.788876
0.891585 0.853452 0.781659
0.778866 0.837247 0.797543
0.780987 0.846967 0.799283
0.782895 0.862028 0.798932
0.801984 0.876249 0.807446
0.830747 0.890318 0.821988
0.862333 0.905333 0.838254
0.895369 0.920867 0.855924
0.928603 0.936828 0.873304
0.962417 0.952941 0.88838
0.0848554 0.12668 0.192782
0.125505 0.145449 0.205478
0.177203 0.171847 0.232746
0.216815 0.189792 0.25214
0.249729 0.201877 0.266377
0.277028 0.20798 0.275608
0.2981 0.206867 0.278859
0.314961 0.200824 0.27808
0.327626 0.189792 0.273182
0.126757 0.186465 0.252384
0.175586 0.204578 0.257481
0.22707 0.230655 0.281315
0.267079 0.25008 0.301747
0.302358 0.265522 0.318639
0.334173 0.27744 0.33254
0.362509 0.285451 0.343191
0.386618 0.288457 0.349722
0.404669 0.284138 0.350271
0.183948 0.262425 0.318395
0.232944 0.280415 0.331365
0.289189 0.303059 0.341451
0.328237 0.322774 0.361852
0.364324 0.33991 0.380011
0.398199 0.354788 0.396262
0.429999 0.367315 0.410529
0.459556 0.377218 0.422629
0.486503 0.384009 0.432166
0.265782 0.351675 0.385809
0.3066 0.370993 0.407034
0.354238 0.389227 0.423285
0.399741 0.406912 0.43183
0.435538 0.424689 0.450355
0.470161 0.441077 0.46772
0.503532 0.45597 0.483848
0.535561 0.469215 0.498619
0.566094 0.480613 0.511864
0.37319 0.446479 0.456992
0.404257 0.46334 0.474311
0.43534 0.480797 0.49305
0.468956 0.498741 0.513954
0.511818 0.514702 0.525475
0.546304 0.531716 0.543221
0.580224 0.547799 0.560235
0.613382 0.562799 0.576379
0.650553 0.575113 0.59144
0.476417 0.547387 0.542031
0.498909 0.559411 0.554192
0.526513 0.574014 0.569024
0.558312 0.590585 0.585962
0.591928 0.607675 0.603662
0.625238 0.624933 0.621088
0.743465 0.620325 0.600153
0.860105 0.613336 0.599405
0.977646 0.605035 0.598535
0.574746 0.648402 0.629343
0.592706 0.65771 0.639048
0.617197 0.670024 0.652171
0.648447 0.684459 0.668833
0.682567 0.69984 0.688762
0.705089 0.720378 0.699687
0.739895 0.736706 0.71693
0.802365 0.747829 0.70071
0.96376 0.734112 0.633387
0.67628 0.748287 0.719097
0.692912 0.755306 0.727947
0.718776 0.764446 0.741772
0.746029 0.777859 0.758755
0.756848 0.799954 0.76585
0.786542 0.817166 0.779919
0.820935 0.833173 0.79794
0.855131 0.849485 0.814069
0.905653 0.863401 0.803189
0.787717 0.844907 0.81503
0.80061 0.851148 0.823102
0.816617 0.861372 0.833997
0.82855 0.878141 0.842985
0.837858 0.899596 0.845716
0.869459 0.915022 0.861509
0.902998 0.930724 0.878904
0.936797 0.946731 0.896819
0.970825 0.962966 0.912261
0.0975814 0.157794 0.240574
0.142535 0.176455 0.248295
0.201434 0.206928 0.277852
0.246693 0.228885 0.300969
0.283391 0.24448 0.318257
0.315084 0.255344 0.331456
0.341955 0.260975 0.340276
0.362661 0.259388 0.34316
0.375662 0.248569 0.338491
0.133989 0.209842 0.291951
0.18436 0.227863 0.296407
0.244999 0.257588 0.319783
0.289464 0.279881 0.342962
0.327214 0.297261 0.361624
0.361181 0.311208 0.377279
0.391928 0.321767 0.390082
0.419242 0.32845 0.399664
0.442344 0.330144 0.405158
0.186755 0.279637 0.353414
0.236698 0.297642 0.364782
0.302602 0.324117 0.375509
0.345357 0.345968 0.39762
0.383322 0.364401 0.416999
0.418585 0.380377 0.434241
0.451637 0.394064 0.449531
0.48249 0.405295 0.462776
0.510994 0.413779 0.473747
0.260945 0.365301 0.420905
0.306477 0.384268 0.43978
0.366155 0.405905 0.453788
0.413306 0.425559 0.463737
0.450629 0.444312 0.483207
0.486305 0.461433 0.501274
0.520531 0.476982 0.518013
0.553323 0.490898 0.533394
0.584619 0.503044 0.547311
0.360769 0.458595 0.488807
0.395132 0.478523 0.511696
0.434714 0.497002 0.532113
0.48014 0.513985 0.547173
0.524361 0.531106 0.555474
0.559731 0.548669 0.573785
0.594308 0.565225 0.591257
0.628016 0.580652 0.607797
0.660746 0.594873 0.623346
0.472969 0.558068 0.567391
0.499107 0.572137 0.581689
0.529 0.588067 0.598077
0.561288 0.605768 0.616938
0.594278 0.623713 0.637919
0.636774 0.639551 0.649699
0.671168 0.656535 0.667414
0.70515 0.672801 0.684565
0.738567 0.688228 0.70103
0.575769 0.658991 0.652705
0.595102 0.669337 0.663172
0.620356 0.68275 0.676768
0.650614 0.698634 0.692958
0.683238 0.715526 0.710292
0.717189 0.732601 0.728084
0.750286 0.74992 0.745418
0.868894 0.745602 0.720974
0.98529 0.738888 0.720272
0.673945 0.760067 0.73991
0.68957 0.768277 0.748363
0.71162 0.77966 0.76022
0.739895 0.793774 0.775326
0.773236 0.808789 0.792996
0.806714 0.824826 0.812863
0.83003 0.845243 0.82388
0.864881 0.861601 0.841154
0.926497 0.873045 0.825315
0.774502 0.860273 0.828901
0.788083 0.866911 0.836301
0.809033 0.876234 0.847517
0.839826 0.887282 0.863844
0.869352 0.901717 0.88217
0.880156 0.924681 0.888991
0.911116 0.941787 0.903792
0.945708 0.957839 0.92192
0.980026 0.974197 0.938033
0.105333 0.187488 0.288289
0.154131 0.205798 0.292897
0.2206 0.238926 0.319936
0.274189 0.266148 0.348135
0.31458 0.284718 0.368093
0.349538 0.298772 0.384009
0.380331 0.308721 0.396429
0.406882 0.313985 0.404959
0.428092 0.312993 0.408347
0.137942 0.233341 0.332403
0.189349 0.251286 0.337362
0.260044 0.283726 0.357198
0.311437 0.310216 0.384482
0.352117 0.329717 0.405081
0.388266 0.345525 0.4224
0.421134 0.358221 0.437034
0.45098 0.367651 0.44892
0.477485 0.373297 0.457664
0.187274 0.297414 0.388602
0.237476 0.315511 0.399756
0.313848 0.345403 0.410422
0.362707 0.370428 0.434302
0.403082 0.390448 0.455192
0.439948 0.40763 0.473548
0.474342 0.422477 0.489876
0.506539 0.435019 0.50425
0.536522 0.445075 0.516564
0.257069 0.378744 0.45391
0.303822 0.397559 0.471489
0.375692 0.423468 0.48542
0.427207 0.445548 0.496727
0.466545 0.465522 0.517357
0.503502 0.483528 0.536263
0.53872 0.499825 0.553704
0.572381 0.514473 0.569741
0.604501 0.527413 0.584344
0.346273 0.470649 0.523766
0.388708 0.490593 0.545419
0.44123 0.512108 0.566461
0.493629 0.530327 0.576577
0.537591 0.548928 0.586725
0.57406 0.567193 0.605692
0.609461 0.584298 0.623697
0.643824 0.600229 0.640711
0.67715 0.614923 0.656718
0.46038 0.567773 0.59498
0.490974 0.58613 0.615274
0.522652 0.604486 0.636515
0.561013 0.622309 0.656474
0.605478 0.638773 0.671199
0.649104 0.655543 0.679347
0.684199 0.672984 0.69752
0.718746 0.689632 0.715038
0.752621 0.705409 0.731838
0.572778 0.669734 0.677928
0.594873 0.681605 0.689967
0.622293 0.696223 0.70486
0.654124 0.713008 0.722148
0.687114 0.730724 0.740887
0.719646 0.748669 0.761822
0.761746 0.764431 0.773968
0.796078 0.781415 0.791669
0.830106 0.797803 0.808896
0.675105 0.770581 0.763378
0.691951 0.779614 0.772503
0.715007 0.791882 0.784939
0.743603 0.806973 0.80029
0.775174 0.823453 0.817121
0.80827 0.840513 0.834638
0.842542 0.857496 0.852537
0.875334 0.874907 0.869749
0.994354 0.870863 0.84181
0.773236 0.871702 0.850507
0.786999 0.879011 0.857984
0.807034 0.889479 0.868788
0.833249 0.902937 0.882841
0.863645 0.918013 0.899031
0.898528 0.933227 0.917418
0.930678 0.949966 0.936843
0.954986 0.970153 0.948119
0.989883 0.986526 0.965408
0.1084 0.215671 0.335103
0.159518 0.233692 0.339315
0.232288 0.266636 0.357961
0.299153 0.301701 0.393668
0.343801 0.323278 0.416434
0.381689 0.339895 0.434623
0.415396 0.352789 0.449546
0.445502 0.362005 0.461357
0.471809 0.366979 0.469627
0.138369 0.256489 0.373022
0.190036 0.274418 0.379507
0.267994 0.306874 0.392859
0.33225 0.340475 0.425711
0.376623 0.362417 0.448646
0.415091 0.380072 0.467628
0.449989 0.394629 0.483879
0.481956 0.406271 0.497627
0.511055 0.414771 0.508766
0.184894 0.315404 0.423987
0.234943 0.333608 0.435752
0.319066 0.365179 0.445731
0.379599 0.39559 0.471382
0.423133 0.417578 0.494179
0.461891 0.436118 0.513787
0.497749 0.452171 0.531197
0.531304 0.465965 0.54667
0.562707 0.47747 0.56022
0.251179 0.39234 0.486305
0.298573 0.411109 0.503166
0.380697 0.440833 0.518502
0.440833 0.466453 0.530587
0.482933 0.488029 0.552499
0.521477 0.507073 0.572396
0.557855 0.524208 0.590631
0.592477 0.539651 0.607385
0.625513 0.553399 0.622721
0.335119 0.481392 0.555535
0.379934 0.500847 0.575525
0.446662 0.527291 0.599054
0.505974 0.54789 0.606989
0.551308 0.567971 0.618952
0.589136 0.587091 0.638758
0.625498 0.604837 0.657389
0.660639 0.621347 0.674937
0.694621 0.636576 0.691417
0.43978 0.577844 0.627329
0.478157 0.598642 0.65098
0.522927 0.619181 0.673152
0.569497 0.637675 0.691066
0.619638 0.654734 0.69987
0.662074 0.672786 0.710094
0.698009 0.690761 0.728786
0.733211 0.707851 0.746731
0.767636 0.724025 0.763912
0.562829 0.679438 0.70454
0.588922 0.694469 0.720516
0.617472 0.711406 0.739254
0.649165 0.729854 0.760708
0.686748 0.747433 0.780621
0.730617 0.763592 0.795331
0.773922 0.780148 0.803357
0.808835 0.797498 0.821424
0.843336 0.814206 0.838972
0.67248 0.781353 0.788495
0.691447 0.791547 0.79881
0.716457 0.804898 0.81236
0.746654 0.820874 0.828656
0.779385 0.83801 0.846311
0.812848 0.855665 0.864881
0.845075 0.87361 0.885679
0.886748 0.889342 0.898253
0.921019 0.90631 0.915938
0.774456 0.882185 0.874052
0.789288 0.890135 0.882094
0.810361 0.901381 0.893462
0.837278 0.915633 0.907942
0.867658 0.931579 0.924208
0.899962 0.948379 0.94139
0.933364 0.965484 0.959014
0.967941 0.982391 0.97702
1 0.999893 0.994064
