Web_Application/Camo Studio/LUTs/VibranceDown.3dl
#Created by: Adobe Photoshop Export Color Lookup Plugin
#Description: test.PNG
0 33 66 99 132 165 198 231 264 297 330 363 396 429 462 495 528 561 594 627 660 693 726 759 792 825 858 891 924 957 990 1023
0 0 0
124 124 132
238 238 264
338 338 396
417 417 528
470 470 660
497 497 793
502 502 925
510 510 1057
568 568 1189
642 642 1321
717 717 1453
791 791 1585
865 865 1717
939 939 1849
1013 1013 1981
1087 1087 2114
1161 1161 2246
1236 1236 2378
1310 1310 2510
1384 1384 2642
1458 1458 2774
1532 1532 2906
1606 1606 3038
1680 1680 3170
1755 1755 3302
1829 1829 3435
1903 1903 3567
1977 1977 3699
2051 2051 3831
2125 2125 3963
2199 2199 4095
124 132 124
124 132 132
238 251 264
338 354 396
417 437 528
470 495 660
497 527 793
502 537 925
510 548 1057
568 604 1189
642 674 1321
717 744 1453
791 816 1585
865 888 1717
939 960 1849
1013 1032 1981
1087 1105 2114
1161 1178 2246
1236 1251 2378
1310 1324 2510
1384 1397 2642
1458 1471 2774
1532 1544 2906
1606 1617 3038
1680 1691 3170
1755 1765 3302
1829 1838 3435
1903 1912 3567
1977 1986 3699
2051 2059 3831
2125 2133 3963
2199 2207 4095
238 264 238
238 264 251
238 264 264
338 372 396
417 460 528
470 523 660
497 559 793
502 575 925
510 589 1057
568 641 1189
642 708 1321
717 775 1453
791 844 1585
865 913 1717
939 983 1849
1013 1054 1981
1087 1125 2114
1161 1196 2246
1236 1268 2378
1310 1340 2510
1384 1413 2642
1458 1485 2774
1532 1557 2906
1606 1630 3038
1680 1703 3170
1755 1776 3302
1829 1849 3435
1903 1922 3567
1977 1996 3699
2051 2069 3831
2125 2142 3963
2199 2216 4095
338 396 338
338 396 354
338 396 372
338 396 396
417 490 528
470 560 660
497 604 793
502 626 925
510 644 1057
568 693 1189
642 754 1321
717 817 1453
791 883 1585
865 949 1717
939 1016 1849
1013 1084 1981
1087 1153 2114
1161 1223 2246
1236 1293 2378
1310 1363 2510
1384 1434 2642
1458 1505 2774
1532 1577 2906
1606 1648 3038
1680 1720 3170
1755 1793 3302
1829 1865 3435
1903 1937 3567
1977 2010 3699
2051 2082 3831
2125 2155 3963
2199 2228 4095
417 528 417
417 528 437
417 528 460
417 528 490
417 528 528
470 606 660
497 658 793
502 688 925
510 710 1057
568 756 1189
642 812 1321
717 871 1453
791 932 1585
865 994 1717
939 1058 1849
1013 1124 1981
1087 1190 2114
1161 1257 2246
1236 1325 2378
1310 1394 2510
1384 1463 2642
1458 1532 2774
1532 1602 2906
1606 1673 3038
1680 1743 3170
1755 1814 3302
1829 1886 3435
1903 1957 3567
1977 2029 3699
2051 2100 3831
2125 2172 3963
2199 2245 4095
470 660 470
470 660 495
470 660 523
470 660 560
470 660 606
470 660 660
497 721 793
502 760 925
510 786 1057
568 829 1189
642 880 1321
717 934 1453
791 991 1585
865 1049 1717
939 1110 1849
1013 1172 1981
1087 1235 2114
1161 1300 2246
1236 1365 2378
1310 1431 2510
1384 1498 2642
1458 1566 2774
1532 1634 2906
1606 1703 3038
1680 1772 3170
1755 1842 3302
1829 1912 3435
1903 1982 3567
1977 2052 3699
2051 2123 3831
2125 2194 3963
2199 2266 4095
497 793 497
497 793 527
497 793 559
497 793 604
497 793 658
497 793 721
497 793 793
502 839 925
510 871 1057
568 910 1189
642 957 1321
717 1006 1453
791 1058 1585
865 1113 1717
939 1170 1849
1013 1228 1981
1087 1288 2114
1161 1350 2246
1236 1412 2378
1310 1476 2510
1384 1541 2642
1458 1606 2774
1532 1672 2906
1606 1739 3038
1680 1807 3170
1755 1875 3302
1829 1943 3435
1903 2012 3567
1977 2081 3699
2051 2151 3831
2125 2221 3963
2199 2291 4095
502 925 502
502 925 537
502 925 575
502 925 626
502 925 688
502 925 760
502 925 839
502 925 925
510 962 1057
568 998 1189
642 1040 1321
717 1085 1453
791 1134 1585
865 1184 1717
939 1237 1849
1013 1292 1981
1087 1349 2114
1161 1407 2246
1236 1467 2378
1310 1528 2510
1384 1590 2642
1458 1653 2774
1532 1717 2906
1606 1782 3038
1680 1847 3170
1755 1914 3302
1829 1980 3435
1903 2048 3567
1977 2115 3699
2051 2184 3831
2125 2252 3963
2199 2322 4095
510 1057 510
510 1057 548
510 1057 589
510 1057 644
510 1057 710
510 1057 786
510 1057 871
510 1057 962
510 1057 1057
568 1092 1189
642 1130 1321
717 1171 1453
791 1215 1585
865 1262 1717
939 1311 1849
1013 1362 1981
1087 1416 2114
1161 1471 2246
1236 1528 2378
1310 1586 2510
1384 1645 2642
1458 1706 2774
1532 1767 2906
1606 1830 3038
1680 1894 3170
1755 1958 3302
1829 2023 3435
1903 2088 3567
1977 2155 3699
2051 2221 3831
2125 2289 3963
2199 2356 4095
568 1189 568
568 1189 604
568 1189 641
568 1189 693
568 1189 756
568 1189 829
568 1189 910
568 1189 998
568 1189 1092
568 1189 1189
642 1223 1321
717 1261 1453
791 1302 1585
865 1345 1717
939 1391 1849
1013 1439 1981
1087 1489 2114
1161 1541 2246
1236 1594 2378
1310 1650 2510
1384 1706 2642
1458 1764 2774
1532 1824 2906
1606 1884 3038
1680 1945 3170
1755 2008 3302
1829 2070 3435
1903 2134 3567
1977 2199 3699
2051 2264 3831
2125 2330 3963
2199 2396 4095
642 1321 642
642 1321 674
642 1321 708
642 1321 754
642 1321 812
642 1321 880
642 1321 957
642 1321 1040
642 1321 1130
642 1321 1223
642 1321 1321
717 1355 1453
791 1393 1585
865 1433 1717
939 1475 1849
1013 1520 1981
1087 1567 2114
1161 1616 2246
1236 1666 2378
1310 1719 2510
1384 1773 2642
1458 1828 2774
1532 1885 2906
1606 1943 3038
1680 2002 3170
1755 2062 3302
1829 2123 3435
1903 2185 3567
1977 2248 3699
2051 2311 3831
2125 2375 3963
2199 2440 4095
717 1453 717
717 1453 744
717 1453 775
717 1453 817
717 1453 871
717 1453 934
717 1453 1006
717 1453 1085
717 1453 1171
717 1453 1261
717 1453 1355
717 1453 1453
791 1487 1585
865 1524 1717
939 1564 1849
1013 1605 1981
1087 1650 2114
1161 1696 2246
1236 1743 2378
1310 1793 2510
1384 1845 2642
1458 1897 2774
1532 1952 2906
1606 2007 3038
1680 2064 3170
1755 2122 3302
1829 2181 3435
1903 2241 3567
1977 2301 3699
2051 2363 3831
2125 2425 3963
2199 2488 4095
791 1585 791
791 1585 816
791 1585 844
791 1585 883
791 1585 932
791 1585 991
791 1585 1058
791 1585 1134
791 1585 1215
791 1585 1302
791 1585 1393
791 1585 1487
791 1585 1585
865 1619 1717
939 1656 1849
1013 1695 1981
1087 1736 2114
1161 1780 2246
1236 1825 2378
1310 1872 2510
1384 1921 2642
1458 1971 2774
1532 2023 2906
1606 2076 3038
1680 2130 3170
1755 2186 3302
1829 2243 3435
1903 2301 3567
1977 2360 3699
2051 2419 3831
2125 2480 3963
2199 2541 4095
865 1717 865
865 1717 888
865 1717 913
865 1717 949
865 1717 994
865 1717 1049
865 1717 1113
865 1717 1184
865 1717 1262
865 1717 1345
865 1717 1433
865 1717 1524
865 1717 1619
865 1717 1717
939 1751 1849
1013 1788 1981
1087 1826 2114
1161 1867 2246
1236 1910 2378
1310 1954 2510
1384 2001 2642
1458 2048 2774
1532 2098 2906
1606 2149 3038
1680 2201 3170
1755 2254 3302
1829 2309 3435
1903 2365 3567
1977 2422 3699
2051 2479 3831
2125 2538 3963
2199 2598 4095
939 1849 939
939 1849 960
939 1849 983
939 1849 1016
939 1849 1058
939 1849 1110
939 1849 1170
939 1849 1237
939 1849 1311
939 1849 1391
939 1849 1475
939 1849 1564
939 1849 1656
939 1849 1751
939 1849 1849
1013 1883 1981
1087 1920 2114
1161 1958 2246
1236 1998 2378
1310 2040 2510
1384 2084 2642
1458 2130 2774
1532 2177 2906
1606 2225 3038
1680 2275 3170
1755 2327 3302
1829 2379 3435
1903 2433 3567
1977 2488 3699
2051 2544 3831
2125 2600 3963
2199 2658 4095
1013 1981 1013
1013 1981 1032
1013 1981 1054
1013 1981 1084
1013 1981 1124
1013 1981 1172
1013 1981 1228
1013 1981 1292
1013 1981 1362
1013 1981 1439
1013 1981 1520
1013 1981 1605
1013 1981 1695
1013 1981 1788
1013 1981 1883
1013 1981 1981
1087 2016 2114
1161 2051 2246
1236 2089 2378
1310 2129 2510
1384 2171 2642
1458 2214 2774
1532 2259 2906
1606 2306 3038
1680 2353 3170
1755 2403 3302
1829 2453 3435
1903 2505 3567
1977 2558 3699
2051 2612 3831
2125 2667 3963
2199 2723 4095
1087 2114 1087
1087 2114 1105
1087 2114 1125
1087 2114 1153
1087 2114 1190
1087 2114 1235
1087 2114 1288
1087 2114 1349
1087 2114 1416
1087 2114 1489
1087 2114 1567
1087 2114 1650
1087 2114 1736
1087 2114 1826
1087 2114 1920
1087 2114 2016
1087 2114 2114
1161 2148 2246
1236 2183 2378
1310 2221 2510
1384 2261 2642
1458 2302 2774
1532 2345 2906
1606 2389 3038
1680 2435 3170
1755 2482 3302
1829 2530 3435
1903 2580 3567
1977 2631 3699
2051 2683 3831
2125 2736 3963
2199 2790 4095
1161 2246 1161
1161 2246 1178
1161 2246 1196
1161 2246 1223
1161 2246 1257
1161 2246 1300
1161 2246 1350
1161 2246 1407
1161 2246 1471
1161 2246 1541
1161 2246 1616
1161 2246 1696
1161 2246 1780
1161 2246 1867
1161 2246 1958
1161 2246 2051
1161 2246 2148
1161 2246 2246
1236 2280 2378
1310 2315 2510
1384 2353 2642
1458 2392 2774
1532 2433 2906
1606 2475 3038
1680 2519 3170
1755 2564 3302
1829 2611 3435
1903 2658 3567
1977 2707 3699
2051 2758 3831
2125 2809 3963
2199 2861 4095
1236 2378 1236
1236 2378 1251
1236 2378 1268
1236 2378 1293
1236 2378 1325
1236 2378 1365
1236 2378 1412
1236 2378 1467
1236 2378 1528
1236 2378 1594
1236 2378 1666
1236 2378 1743
1236 2378 1825
1236 2378 1910
1236 2378 1998
1236 2378 2089
1236 2378 2183
1236 2378 2280
1236 2378 2378
1310 2412 2510
1384 2447 2642
1458 2485 2774
1532 2523 2906
1606 2564 3038
1680 2606 3170
1755 2649 3302
1829 2694 3435
1903 2740 3567
1977 2787 3699
2051 2835 3831
2125 2885 3963
2199 2935 4095
1310 2510 1310
1310 2510 1324
1310 2510 1340
1310 2510 1363
1310 2510 1394
1310 2510 1431
1310 2510 1476
1310 2510 1528
1310 2510 1586
1310 2510 1650
1310 2510 1719
1310 2510 1793
1310 2510 1872
1310 2510 1954
1310 2510 2040
1310 2510 2129
1310 2510 2221
1310 2510 2315
1310 2510 2412
1310 2510 2510
1384 2544 2642
1458 2579 2774
1532 2616 2906
1606 2655 3038
1680 2695 3170
1755 2736 3302
1829 2779 3435
1903 2823 3567
1977 2869 3699
2051 2916 3831
2125 2963 3963
2199 3012 4095
1384 2642 1384
1384 2642 1397
1384 2642 1413
1384 2642 1434
1384 2642 1463
1384 2642 1498
1384 2642 1541
1384 2642 1590
1384 2642 1645
1384 2642 1706
1384 2642 1773
1384 2642 1845
1384 2642 1921
1384 2642 2001
1384 2642 2084
1384 2642 2171
1384 2642 2261
1384 2642 2353
1384 2642 2447
1384 2642 2544
1384 2642 2642
1458 2676 2774
1532 2711 2906
1606 2748 3038
1680 2786 3170
1755 2826 3302
1829 2867 3435
1903 2910 3567
1977 2954 3699
2051 2998 3831
2125 3045 3963
2199 3092 4095
1458 2774 1458
1458 2774 1471
1458 2774 1485
1458 2774 1505
1458 2774 1532
1458 2774 1566
1458 2774 1606
1458 2774 1653
1458 2774 1706
1458 2774 1764
1458 2774 1828
1458 2774 1897
1458 2774 1971
1458 2774 2048
1458 2774 2130
1458 2774 2214
1458 2774 2302
1458 2774 2392
1458 2774 2485
1458 2774 2579
1458 2774 2676
1458 2774 2774
1532 2808 2906
1606 2843 3038
1680 2880 3170
1755 2918 3302
1829 2957 3435
1903 2998 3567
1977 3040 3699
2051 3084 3831
2125 3128 3963
2199 3174 4095
1532 2906 1532
1532 2906 1544
1532 2906 1557
1532 2906 1577
1532 2906 1602
1532 2906 1634
1532 2906 1672
1532 2906 1717
1532 2906 1767
1532 2906 1824
1532 2906 1885
1532 2906 1952
1532 2906 2023
1532 2906 2098
1532 2906 2177
1532 2906 2259
1532 2906 2345
1532 2906 2433
1532 2906 2523
1532 2906 2616
1532 2906 2711
1532 2906 2808
1532 2906 2906
1606 2940 3038
1680 2975 3170
1755 3012 3302
1829 3050 3435
1903 3089 3567
1977 3129 3699
2051 3171 3831
2125 3214 3963
2199 3258 4095
1606 3038 1606
1606 3038 1617
1606 3038 1630
1606 3038 1648
1606 3038 1673
1606 3038 1703
1606 3038 1739
1606 3038 1782
1606 3038 1830
1606 3038 1884
1606 3038 1943
1606 3038 2007
1606 3038 2076
1606 3038 2149
1606 3038 2225
1606 3038 2306
1606 3038 2389
1606 3038 2475
1606 3038 2564
1606 3038 2655
1606 3038 2748
1606 3038 2843
1606 3038 2940
1606 3038 3038
1680 3072 3170
1755 3107 3302
1829 3143 3435
1903 3181 3567
1977 3220 3699
2051 3260 3831
2125 3302 3963
2199 3344 4095
1680 3170 1680
1680 3170 1691
1680 3170 1703
1680 3170 1720
1680 3170 1743
1680 3170 1772
1680 3170 1807
1680 3170 1847
1680 3170 1894
1680 3170 1945
1680 3170 2002
1680 3170 2064
1680 3170 2130
1680 3170 2201
1680 3170 2275
1680 3170 2353
1680 3170 2435
1680 3170 2519
1680 3170 2606
1680 3170 2695
1680 3170 2786
1680 3170 2880
1680 3170 2975
1680 3170 3072
1680 3170 3170
1755 3204 3302
1829 3239 3435
1903 3275 3567
1977 3313 3699
2051 3352 3831
2125 3392 3963
2199 3433 4095
1755 3302 1755
1755 3302 1765
1755 3302 1776
1755 3302 1793
1755 3302 1814
1755 3302 1842
1755 3302 1875
1755 3302 1914
1755 3302 1958
1755 3302 2008
1755 3302 2062
1755 3302 2122
1755 3302 2186
1755 3302 2254
1755 3302 2327
1755 3302 2403
1755 3302 2482
1755 3302 2564
1755 3302 2649
1755 3302 2736
1755 3302 2826
1755 3302 2918
1755 3302 3012
1755 3302 3107
1755 3302 3204
1755 3302 3302
1829 3336 3435
1903 3371 3567
1977 3407 3699
2051 3445 3831
2125 3483 3963
2199 3523 4095
1829 3435 1829
1829 3435 1838
1829 3435 1849
1829 3435 1865
1829 3435 1886
1829 3435 1912
1829 3435 1943
1829 3435 1980
1829 3435 2023
1829 3435 2070
1829 3435 2123
1829 3435 2181
1829 3435 2243
1829 3435 2309
1829 3435 2379
1829 3435 2453
1829 3435 2530
1829 3435 2611
1829 3435 2694
1829 3435 2779
1829 3435 2867
1829 3435 2957
1829 3435 3050
1829 3435 3143
1829 3435 3239
1829 3435 3336
1829 3435 3435
1903 3468 3567
1977 3503 3699
2051 3539 3831
2125 3576 3963
2199 3615 4095
1903 3567 1903
1903 3567 1912
1903 3567 1922
1903 3567 1937
1903 3567 1957
1903 3567 1982
1903 3567 2012
1903 3567 2048
1903 3567 2088
1903 3567 2134
1903 3567 2185
1903 3567 2241
1903 3567 2301
1903 3567 2365
1903 3567 2433
1903 3567 2505
1903 3567 2580
1903 3567 2658
1903 3567 2740
1903 3567 2823
1903 3567 2910
1903 3567 2998
1903 3567 3089
1903 3567 3181
1903 3567 3275
1903 3567 3371
1903 3567 3468
1903 3567 3567
1977 3600 3699
2051 3635 3831
2125 3671 3963
2199 3708 4095
1977 3699 1977
1977 3699 1986
1977 3699 1996
1977 3699 2010
